!!!OTL: Xiao ta qing
!!!ARE: Asia, China,ÿAnhui, Fuyang
!! III, 594
!!!SCT: C1618
!!!YEM: Copyright 1995, estate of Helmut Schaffrath.
**kern
*ICvox
*Ivox
*M2/4
*k[f#]
*G:
{8dd
8dd
16ee
16dd
8b
=1
2a
=2
8dd
8dd
16ee
16dd
8b
=3
4.a}
{8b
=4
8g
16g
16e
8g
8e
=5
8dd
8dd
8a
8dd
=6
8a
8g
8e
16d
16e
=7
8.g
16e
4g}
=8
{8.a
16b
4dd
=9
8dd
8b
8b
8a
=10
8.g
16a
4b
=11
8dd
8b
8a
8g}
=12
{8g
8g
4e
=13
8dd
8b
8a
8g
=14
8d
8d
16c
16d
8e
=15
2d}
=16
{8.a
16b
8dd
8dd
=17
8dd
8b
8a
8g
=18
8g
8g
4e
=19
8dd
8ee
8a
8g
=20
8d
8d
16c
16d
8e
=21
2d}
==
!!!AGN: Xiaodiao. Chunyou
!!!AMT: simple duple
!!!AIN: vox
!!!EED: Helmut Schaffrath
!!!EEV: 1.0
*-
